findly-builder/apps/searchassist/src/assets/images/icons/empty_ill.svg

<?xml version="1.0" encoding="UTF-8"?>
<svg width="250px" height="176px" viewBox="0 0 250 176" version="1.1" xmlns="http://www.w3.org/2000/svg" xmlns:xlink="http://www.w3.org/1999/xlink">
    <title>Group 4</title>
    <g id="Page-1" stroke="none" stroke-width="1" fill="none" fill-rule="evenodd">
        <g id="Automate-3" transform="translate(-558.000000, -231.000000)">
            <g id="Group-4" transform="translate(558.000000, 231.000000)">
                <rect id="Rectangle" fill="#FFFFFF" x="0" y="6" width="250" height="170"></rect>
                <g id="empty-illustration" fill-rule="nonzero">
                    <g id="Group" opacity="0.5" transform="translate(54.440860, 0.000000)" fill="#8A959F">
                        <path d="M76.9686667,48.6260305 C76.3689247,48.6260305 75.8807419,49.1165076 75.8807419,49.7186599 C75.8807419,50.3217056 76.3689247,50.8112893 76.9686667,50.8112893 C77.5666237,50.8112893 78.0556989,50.3217056 78.0556989,49.7186599 C78.0556989,49.1165076 77.5675161,48.6260305 76.9686667,48.6260305 M76.9686667,53.2556345 C75.0266452,53.2556345 73.4478602,51.6689543 73.4478602,49.7177665 C73.4478602,47.7674721 75.0275376,46.1807919 76.9686667,46.1807919 C78.9097957,46.1807919 80.4885806,47.7674721 80.4885806,49.7186599 C80.4885806,51.6689543 78.9089032,53.2565279 76.9686667,53.2565279" id="Shape" opacity="0.3"></path>
                        <ellipse id="Oval" opacity="0.3" cx="107.441269" cy="44.3600406" rx="3.64932258" ry="3.61738071"></ellipse>
                        <ellipse id="Oval" opacity="0.3" cx="17.4335699" cy="6.06172589" rx="3.64932258" ry="3.61738071"></ellipse>
                        <path d="M42.9074301,16.7736041 C42.3076882,16.7736041 41.8186129,17.2649746 41.8186129,17.8662335 C41.8186129,18.4692792 42.3076882,18.9588629 42.9074301,18.9588629 C43.5062796,18.9588629 43.9944624,18.4692792 43.9944624,17.8662335 C43.9944624,17.2640812 43.5062796,16.7736041 42.9074301,16.7736041 M42.9074301,21.4041015 C40.9654086,21.4041015 39.3866237,19.8174213 39.3866237,17.8662335 C39.3866237,15.9159391 40.9654086,14.3292589 42.9074301,14.3292589 C44.8485591,14.3292589 46.4273441,15.9159391 46.4273441,17.8671269 C46.4273441,19.8174213 44.8485591,21.4041015 42.9074301,21.4041015 M137.02943,30.2353706 C136.429688,30.2353706 135.941505,30.7258477 135.941505,31.328 C135.941505,31.9310457 136.429688,32.4206294 137.02943,32.4206294 C137.629172,32.4206294 138.118247,31.9310457 138.118247,31.328 C138.118247,30.7258477 137.629172,30.2353706 137.02943,30.2353706 M137.02943,34.8649746 C135.088301,34.8649746 133.509516,33.2791878 133.509516,31.328 C133.509516,29.3777056 135.088301,27.790132 137.02943,27.790132 C138.971452,27.790132 140.550237,29.3777056 140.550237,31.328 C140.550237,33.2791878 138.970559,34.865868 137.02943,34.865868 M101.835645,30.1790863 L106.033839,30.1790863 L106.033839,28.2582741 L101.835645,28.2582741 L101.835645,30.1790863 Z" id="Shape" opacity="0.3"></path>
                        <path d="M103.332323,31.328 L104.537161,31.328 L104.537161,27.108467 L103.332323,27.108467 L103.332323,31.328 Z M78.153871,2.96073096 L82.352957,2.96073096 L82.352957,1.25880203 L78.153871,1.25880203 L78.153871,2.96073096 Z" id="Shape" opacity="0.3"></path>
                        <path d="M79.6335914,4.21953299 L80.8732366,4.21953299 L80.8732366,0 L79.6335914,0 L79.6335914,4.21953299 Z M21.5559032,36.621401 L25.7558817,36.621401 L25.7558817,35.2947005 L21.5559032,35.2947005 L21.5559032,36.621401 Z" id="Shape" opacity="0.3"></path>
                        <path d="M22.7134409,38.0678173 L24.5992366,38.0678173 L24.5992366,33.8482843 L22.7134409,33.8482843 L22.7134409,38.0678173 Z M115.156699,55.9831878 C115.156699,55.3435127 115.672548,54.8253401 116.308882,54.8253401 C116.945215,54.8253401 117.460172,55.3435127 117.460172,55.9831878 C117.460172,56.6228629 116.945215,57.1410355 116.308882,57.1410355 C115.672548,57.1410355 115.157591,56.6228629 115.157591,55.9831878 M64.375871,26.778802 C64.375871,26.1391269 64.8917204,25.6209543 65.5271613,25.6209543 C66.1634946,25.6209543 66.6793441,26.1391269 66.6793441,26.778802 C66.6793441,27.4184772 66.1634946,27.9366497 65.5280538,27.9366497 C64.8917204,27.9366497 64.375871,27.4184772 64.375871,26.778802 M137.02943,72.5093198 L141.228516,72.5093198 L141.228516,70.0649746 L137.02943,70.0649746 L137.02943,72.5093198 Z" id="Shape" opacity="0.3"></path>
                        <path d="M137.912086,73.396467 L140.344968,73.396467 L140.344968,69.1778274 L137.912086,69.1778274 L137.912086,73.396467 Z M3.58684946,58.1934619 C2.98710753,58.1934619 2.49892473,58.6839391 2.49892473,59.2860914 C2.49892473,59.8882437 2.98710753,60.3787208 3.58684946,60.3787208 C4.18569892,60.3787208 4.67388172,59.8873503 4.67388172,59.2860914 C4.67388172,58.6839391 4.18569892,58.1934619 3.58684946,58.1934619 M3.58684946,62.823066 C1.64482796,62.823066 0.0660430108,61.2354924 0.0660430108,59.285198 C0.0660430108,57.3349036 1.64572043,55.7482234 3.58774194,55.7482234 C5.52976344,55.7482234 7.10765591,57.3349036 7.10765591,59.2860914 C7.10765591,61.2354924 5.52797849,62.8239594 3.58774194,62.8239594 M8.32052688,20.5249949 C8.32052688,19.8853198 8.83637634,19.3671472 9.4718172,19.3671472 C10.1081505,19.3671472 10.624,19.8853198 10.624,20.5249949 C10.624,21.1646701 10.1081505,21.6828426 9.47270968,21.6828426 C8.83637634,21.6828426 8.32052688,21.1646701 8.32052688,20.5249949" id="Shape" opacity="0.3"></path>
                    </g>
                    <path d="M230.195591,109.292426 L225.943849,109.292426 C224.625667,109.292426 223.558269,107.959472 223.558269,106.314721 C223.558269,104.670863 224.625667,103.337015 225.943849,103.337015 L235.012269,103.337015 C236.329559,103.337015 237.397849,102.003168 237.397849,100.358416 C237.397849,98.7145584 236.329559,97.3807107 235.012269,97.3807107 L206.92257,97.3807107 C205.60528,97.3807107 204.536989,98.7145584 204.536989,100.358416 C204.536989,102.003168 205.60528,103.337015 206.92257,103.337015 L209.878441,103.337015 C211.196624,103.337015 212.264022,104.66997 212.264022,106.314721 C212.264022,107.958579 211.196624,109.292426 209.878441,109.292426 L198.729667,109.292426 C197.412376,109.292426 196.344086,110.626274 196.344086,112.271025 C196.344086,113.914883 197.412376,115.248731 198.729667,115.248731 L230.194699,115.248731 C231.511989,115.248731 232.58028,113.915777 232.58028,112.271025 C232.58028,110.626274 231.511989,109.292426 230.194699,109.292426 L230.195591,109.292426 Z M7.26830108,77.1299898 L11.5575269,77.1299898 C12.8873118,77.1299898 13.9645269,75.7970355 13.9645269,74.1522843 C13.9645269,72.5084264 12.8873118,71.1745787 11.5575269,71.1745787 L2.407,71.1745787 C1.07721505,71.1745787 0,69.840731 0,68.1959797 C0,66.5521218 1.07810753,65.2182741 2.407,65.2182741 L30.7510538,65.2182741 C32.0799462,65.2182741 33.1580538,66.5521218 33.1580538,68.1959797 C33.1580538,69.840731 32.0799462,71.1745787 30.7510538,71.1745787 L27.7675161,71.1745787 C26.4377312,71.1745787 25.3605161,72.507533 25.3605161,74.1522843 C25.3605161,75.7961421 26.4386237,77.1299898 27.7675161,77.1299898 L52.0338602,77.1299898 C53.3636452,77.1299898 54.4408602,78.4638376 54.4408602,80.1085888 C54.4408602,81.7524467 53.3627527,83.0862944 52.0338602,83.0862944 L7.26830108,83.0862944 C5.93851613,83.0862944 4.86130108,81.7533401 4.86130108,80.1085888 C4.86130108,78.4638376 5.93851613,77.1299898 7.26830108,77.1299898 Z" id="Shape" fill="#8A959F" opacity="0.2"></path>
                    <g id="Group" transform="translate(0.892473, 125.969543)" fill="#26344A">
                        <path d="M29.5944086,49.1370558 L218.529183,49.1370558 L218.529183,47.5262538 L29.5944086,47.5262538 L29.5944086,49.1370558 Z M247.847817,47.5262538 L225.826043,47.5262538 L225.826043,49.1370558 L247.847817,49.1370558 L247.847817,47.5262538 Z M22.4430215,47.5262538 L0.421247312,47.5262538 L0.421247312,49.1370558 L22.4430215,49.1370558 L22.4430215,47.5262538 Z" id="Shape"></path>
                        <polygon id="Path" points="54.4212258 48.734132 54.4212258 21.3460305 52.7996022 21.3460305 52.7996022 48.734132"></polygon>
                        <path d="M53.9187634,34.6103553 C48.321172,34.6103553 43.7838387,30.1031472 43.7838387,24.5417259 C43.7838387,20.8814619 46.9583656,15.2682234 53.2904624,7.54655838 L53.9187634,6.7800203 L54.5470645,7.54655838 C60.8791613,15.2673299 64.0536882,20.8814619 64.0536882,24.5417259 C64.0536882,30.1031472 59.5163548,34.6103553 53.9187634,34.6103553 Z M45.4045699,24.5417259 C45.4045699,29.2133198 49.2172151,32.9995533 53.9187634,32.9995533 C58.6203118,32.9995533 62.432957,29.2133198 62.432957,24.5417259 C62.432957,21.4916548 59.6002473,16.3760406 53.9187634,9.33604061 C48.238172,16.3760406 45.4045699,21.4916548 45.4045699,24.5417259 Z" id="Shape"></path>
                        <polygon id="Path" transform="translate(51.892403, 27.387655) rotate(90.000000) translate(-51.892403, -27.387655) " points="50.6840784 29.7504774 54.2398144 26.1716602 53.1007281 25.0248322 49.5449921 28.6036494"></polygon>
                        <g transform="translate(176.709677, 0.000000)">
                            <polygon id="Path" points="15.5486667 48.5634924 15.5486667 10.239269 13.927043 10.239269 13.927043 48.5634924"></polygon>
                            <path d="M15.0462043,28.1930558 C7.21029032,28.1930558 0.856774194,21.8820711 0.856774194,14.097868 C0.856774194,6.31098477 7.20939785,0 15.0462043,0 C22.8821183,0 29.2347419,6.31098477 29.2347419,14.0969746 C29.2347419,21.8820711 22.8821183,28.1930558 15.0462043,28.1930558 Z M15.0462043,26.5822538 C21.9869677,26.5822538 27.6131183,20.9922437 27.6131183,14.0969746 C27.6131183,7.20081218 21.9869677,1.61080203 15.0462043,1.61080203 C8.10544086,1.61080203 2.47839785,7.20081218 2.47839785,14.0969746 C2.47839785,20.9922437 8.10544086,26.5822538 15.0462043,26.5822538 Z" id="Shape"></path>
                            <polygon id="Path" points="15.2487957 23.8949036 22.476043 16.7146396 21.3301075 15.5755533 14.1019677 22.7558173"></polygon>
                            <polygon id="Path" transform="translate(12.208140, 16.110701) rotate(90.000000) translate(-12.208140, -16.110701) " points="10.3954291 19.0817435 15.1599367 14.2864855 14.0208504 13.1396575 9.25634283 17.9349156"></polygon>
                        </g>
                    </g>
                    <g id="Group" transform="translate(76.752688, 71.472081)" fill="#26344A">
                        <path d="M1.62519355,1.62241624 L1.62519355,64.8823553 L89.4070645,64.8823553 L89.4070645,1.62241624 L1.62430108,1.62241624 L1.62519355,1.62241624 Z M91.0322581,0 L91.0322581,66.5047716 L0,66.5047716 L0,0 L91.0322581,0 Z" id="Shape"></path>
                        <path d="M90.6261828,11.3542335 L0.422139785,11.3542335 L0.422139785,12.9766497 L90.6261828,12.9766497 L90.6261828,11.3542335 Z M55.2048172,49.7445685 C50.1266452,54.8119391 41.8917957,54.8119391 36.8136237,49.7445685 L36.238871,49.1710051 L37.3883763,48.0238782 L37.963129,48.5974416 C42.4067527,53.0313909 49.6116882,53.0313909 54.0553118,48.5974416 L54.6300645,48.0238782 L55.7795699,49.1710051 L55.2048172,49.7445685 L55.2048172,49.7445685 Z M27.8897849,101.645807 L29.2775806,103.035046 L8.14470968,103.001096 L9.52804301,101.616325 C14.5901505,96.5489543 22.8107204,96.5614619 27.8897849,101.645807 L27.8897849,101.645807 Z M12.351828,101.383147 L25.0651075,101.403695 C21.232828,98.8047919 16.1760753,98.7967513 12.351828,101.383147 Z M63.6520753,101.645807 L65.039871,103.035046 L43.9078925,103.001096 L45.2912258,101.616325 C50.3533333,96.5489543 58.5739032,96.5614619 63.6520753,101.645807 L63.6520753,101.645807 Z M48.1141183,101.383147 L60.8273978,101.403695 C56.9960108,98.8047919 51.9383656,98.7967513 48.1141183,101.383147 L48.1141183,101.383147 Z" id="Shape"></path>
                        <path d="M32.2905699,64.8966497 C21.2685269,71.2469442 19.3532796,88.3010761 27.8415914,102.972508 L28.2485591,103.674721 L29.6559892,102.863513 L29.249914,102.161299 C21.1658925,88.1885076 22.9669032,72.1412386 33.1036129,66.3019695 L33.8068817,65.8963655 L32.9947312,64.4919391 L32.2905699,64.8975431 L32.2905699,64.8966497 Z M68.1403226,64.8966497 C57.1182796,71.2478376 55.2021398,88.3019695 63.6913441,102.973401 L64.0974194,103.675614 L65.5057419,102.864406 L65.0987742,102.162193 C57.0147527,88.189401 58.8166559,72.142132 68.9524731,66.3028629 L69.6566344,65.8972589 L68.8444839,64.4928325 L68.1394301,64.8984365 L68.1403226,64.8966497 Z" id="Shape"></path>
                        <g id="Oval" transform="translate(5.689516, 5.677563)">
                            <ellipse cx="1.62519355" cy="1.62241624" rx="1.62519355" ry="1.62241624"></ellipse>
                            <ellipse cx="6.50255914" cy="1.62241624" rx="1.62519355" ry="1.62241624"></ellipse>
                            <ellipse cx="11.3790323" cy="1.62241624" rx="1.62519355" ry="1.62241624"></ellipse>
                        </g>
                        <g transform="translate(26.009344, 23.519675)">
                            <path d="M5.28344086,16.2205888 C2.25795699,16.2205888 0,12.531736 0,8.11029442 C0,3.68795939 2.25884946,0 5.28344086,0 C8.30713978,0 10.5668817,3.68885279 10.5668817,8.11029442 C10.5668817,12.5326294 8.30713978,16.2205888 5.28344086,16.2205888 Z M5.28344086,14.5981726 C7.19690323,14.5981726 8.9407957,11.7509036 8.9407957,8.11029442 C8.9407957,4.46968528 7.19690323,1.62241624 5.28344086,1.62241624 C3.36908602,1.62241624 1.62519355,4.46968528 1.62519355,8.11029442 C1.62519355,11.7509036 3.36908602,14.5981726 5.28344086,14.5981726 Z M33.7310215,16.2205888 C30.7064301,16.2205888 28.4475806,12.531736 28.4475806,8.11029442 C28.4475806,3.68795939 30.7064301,0 33.7310215,0 C36.7547204,0 39.0144624,3.68885279 39.0144624,8.11029442 C39.0144624,12.5326294 36.7547204,16.2205888 33.7310215,16.2205888 Z M33.7310215,14.5981726 C35.6444839,14.5981726 37.3883763,11.7509036 37.3883763,8.11029442 C37.3883763,4.46968528 35.6444839,1.62241624 33.7310215,1.62241624 C31.8166667,1.62241624 30.0727742,4.46968528 30.0727742,8.11029442 C30.0727742,11.7509036 31.8166667,14.5981726 33.7310215,14.5981726 Z" id="Shape"></path>
                            <ellipse id="Oval" cx="5.28344086" cy="12.1654416" rx="2.03216129" ry="3.24393909"></ellipse>
                            <ellipse id="Oval" cx="33.7310215" cy="12.1654416" rx="2.03216129" ry="3.24393909"></ellipse>
                        </g>
                    </g>
                </g>
            </g>
        </g>
    </g>
</svg>

<svg width="250" height="176" xmlns="http://www.w3.org/2000/svg"><g fill="none" fill-rule="evenodd"><path fill="#FFF" d="M0 6h250v170H0z"/><g fill-rule="nonzero"><g opacity=".5" transform="translate(54.44)" fill="#8A959F"><path d="M76.969 48.626a1.092 1.092 0 0 0 0 2.185 1.092 1.092 0 0 0 0-2.185m0 4.63c-1.942 0-3.521-1.587-3.521-3.538 0-1.95 1.58-3.537 3.52-3.537 1.942 0 3.52 1.586 3.52 3.538 0 1.95-1.58 3.538-3.52 3.538" opacity=".3"/><ellipse opacity=".3" cx="107.441" cy="44.36" rx="3.649" ry="3.617"/><ellipse opacity=".3" cx="17.434" cy="6.062" rx="3.649" ry="3.617"/><path d="M42.907 16.774a1.093 1.093 0 0 0 0 2.185c.6 0 1.087-.49 1.087-1.093 0-.602-.488-1.092-1.087-1.092m0 4.63c-1.942 0-3.52-1.587-3.52-3.538 0-1.95 1.578-3.537 3.52-3.537s3.52 1.587 3.52 3.538c0 1.95-1.578 3.537-3.52 3.537m94.122 8.831a1.092 1.092 0 0 0 0 2.186 1.092 1.092 0 0 0 0-2.186m0 4.63c-1.94 0-3.52-1.586-3.52-3.537 0-1.95 1.58-3.538 3.52-3.538 1.942 0 3.521 1.588 3.521 3.538 0 1.951-1.58 3.538-3.52 3.538m-35.194-4.687h4.198v-1.92h-4.198v1.92Z" opacity=".3"/><path d="M103.332 31.328h1.205v-4.22h-1.205v4.22ZM78.154 2.961h4.199V1.259h-4.2V2.96Z" opacity=".3"/><path d="M79.634 4.22h1.24V0h-1.24v4.22Zm-58.078 32.4h4.2v-1.326h-4.2v1.326Z" opacity=".3"/><path d="M22.713 38.068H24.6v-4.22h-1.886v4.22Zm92.444 17.915c0-.64.516-1.158 1.152-1.158.636 0 1.151.519 1.151 1.158 0 .64-.515 1.158-1.151 1.158a1.154 1.154 0 0 1-1.151-1.158M64.376 26.78c0-.64.516-1.158 1.151-1.158.636 0 1.152.518 1.152 1.158 0 .64-.516 1.158-1.15 1.158a1.155 1.155 0 0 1-1.153-1.158m72.653 45.73h4.2v-2.444h-4.2v2.444Z" opacity=".3"/><path d="M137.912 73.396h2.433v-4.218h-2.433v4.218ZM3.587 58.193a1.092 1.092 0 0 0 0 2.186 1.092 1.092 0 0 0 0-2.186m0 4.63c-1.942 0-3.521-1.588-3.521-3.538 0-1.95 1.58-3.537 3.522-3.537 1.942 0 3.52 1.587 3.52 3.538 0 1.95-1.58 3.538-3.52 3.538M8.32 20.525c0-.64.515-1.158 1.15-1.158.637 0 1.153.518 1.153 1.158 0 .64-.516 1.158-1.151 1.158a1.155 1.155 0 0 1-1.152-1.158" opacity=".3"/></g><path d="M230.196 109.292h-4.252c-1.318 0-2.386-1.333-2.386-2.977s1.068-2.978 2.386-2.978h9.068c1.318 0 2.386-1.334 2.386-2.979 0-1.643-1.068-2.977-2.386-2.977h-28.09c-1.317 0-2.385 1.334-2.385 2.977 0 1.645 1.068 2.979 2.386 2.979h2.955c1.319 0 2.386 1.333 2.386 2.978 0 1.644-1.067 2.977-2.386 2.977H198.73c-1.318 0-2.386 1.334-2.386 2.979 0 1.644 1.068 2.978 2.386 2.978h31.465c1.317 0 2.385-1.333 2.385-2.978 0-1.645-1.068-2.979-2.385-2.979ZM7.268 77.13h4.29c1.33 0 2.407-1.333 2.407-2.978 0-1.644-1.078-2.977-2.407-2.977H2.407C1.077 71.175 0 69.84 0 68.196c0-1.644 1.078-2.978 2.407-2.978h28.344c1.329 0 2.407 1.334 2.407 2.978 0 1.645-1.078 2.979-2.407 2.979h-2.983c-1.33 0-2.407 1.333-2.407 2.977s1.078 2.978 2.407 2.978h24.266c1.33 0 2.407 1.334 2.407 2.979 0 1.643-1.078 2.977-2.407 2.977H7.268c-1.33 0-2.407-1.333-2.407-2.977 0-1.645 1.078-2.979 2.407-2.979Z" fill="#8A959F" opacity=".2"/><g fill="#26344A"><path d="M30.487 175.107h188.935v-1.611H30.487v1.61Zm218.253-1.611h-22.02v1.61h22.021v-1.61Zm-225.405 0H1.314v1.61h22.021v-1.61Z"/><path d="M55.314 174.704v-27.388h-1.622v27.388z"/><path d="M54.811 160.58c-5.597 0-10.135-4.507-10.135-10.069 0-3.66 3.175-9.273 9.507-16.995l.628-.766.629.766c6.332 7.72 9.506 13.335 9.506 16.995 0 5.562-4.537 10.069-10.135 10.069Zm-8.514-10.069c0 4.672 3.813 8.458 8.514 8.458 4.702 0 8.514-3.786 8.514-8.458 0-3.05-2.832-8.165-8.514-15.205-5.68 7.04-8.514 12.155-8.514 15.205Z"/><path d="m50.422 152.149 3.579 3.556 1.147-1.14-3.58-3.555zm142.728 22.384v-38.324h-1.62v38.324z"/><path d="M192.648 154.163c-7.836 0-14.19-6.311-14.19-14.096 0-7.786 6.354-14.097 14.19-14.097 7.836 0 14.189 6.31 14.189 14.097 0 7.785-6.353 14.096-14.189 14.096Zm0-1.611c6.941 0 12.567-5.59 12.567-12.485 0-6.897-5.626-12.487-12.567-12.487-6.94 0-12.567 5.59-12.567 12.487 0 6.895 5.627 12.485 12.567 12.485Z"/><path d="m192.85 149.864 7.228-7.18-1.146-1.139-7.228 7.18zm-6.01-9.596 4.795 4.764 1.146-1.139-4.795-4.765z"/></g><g fill="#26344A"><path d="M78.378 73.094v63.26h87.782v-63.26H78.377Zm89.407-1.622v66.505H76.753V71.472h91.032Z"/><path d="M167.379 82.826H77.175v1.623h90.204v-1.623Zm-35.421 38.39c-5.079 5.068-13.314 5.068-18.392 0l-.574-.573 1.15-1.147.574.574c4.443 4.433 11.648 4.433 16.092 0l.575-.574 1.15 1.147-.575.574Zm-27.316 51.902 1.388 1.39-21.133-.035 1.384-1.385c5.062-5.067 13.282-5.054 18.361.03Zm-15.537-.263 12.713.02c-3.832-2.598-8.89-2.606-12.713-.02Zm51.3.263 1.388 1.39-21.132-.035 1.383-1.385c5.062-5.067 13.283-5.054 18.36.03Zm-15.538-.263 12.713.02c-3.831-2.598-8.889-2.606-12.713-.02Z"/><path d="M109.043 136.369c-11.022 6.35-12.937 23.404-4.449 38.076l.407.702 1.408-.811-.406-.703c-8.084-13.972-6.283-30.02 3.853-35.859l.704-.406-.813-1.404-.704.406v-.001Zm35.85 0c-11.022 6.35-12.938 23.405-4.449 38.076l.406.703 1.408-.812-.407-.702c-8.084-13.973-6.282-30.02 3.854-35.86l.704-.405-.812-1.404-.705.406.001-.002Z"/><g transform="translate(82.442 77.15)"><ellipse cx="1.625" cy="1.622" rx="1.625" ry="1.622"/><ellipse cx="6.503" cy="1.622" rx="1.625" ry="1.622"/><ellipse cx="11.379" cy="1.622" rx="1.625" ry="1.622"/></g><g transform="translate(102.762 94.992)"><path d="M5.283 16.22C2.258 16.22 0 12.533 0 8.11 0 3.688 2.259 0 5.283 0c3.024 0 5.284 3.689 5.284 8.11 0 4.423-2.26 8.11-5.284 8.11Zm0-1.622c1.914 0 3.658-2.847 3.658-6.488 0-3.64-1.744-6.488-3.658-6.488S1.625 4.47 1.625 8.11c0 3.64 1.744 6.488 3.658 6.488Zm28.448 1.623c-3.025 0-5.283-3.69-5.283-8.11C28.448 3.687 30.706 0 33.73 0s5.283 3.689 5.283 8.11c0 4.423-2.26 8.11-5.283 8.11Zm0-1.623c1.913 0 3.657-2.847 3.657-6.488 0-3.64-1.744-6.488-3.657-6.488-1.914 0-3.658 2.848-3.658 6.488 0 3.64 1.744 6.488 3.658 6.488Z"/><ellipse cx="5.283" cy="12.165" rx="2.032" ry="3.244"/><ellipse cx="33.731" cy="12.165" rx="2.032" ry="3.244"/></g></g></g></g></svg>
